!!!COM: Mozart
!!!OTL: 12 Variations on "Ah Vous dirais-je, Maman" for the Piano
!!!Variation: 4 b
**function	**harm	**kern	**kern
*	*	*clefF4	*clefG2
*	*	*k[]	*k[]
*M2/4	*M2/4	*M2/4	*M2/4
*C:	*C:	*C:	*C:
=105	=105	=105	=105
*	*	*	*^
2D	2Ic	12GGL	4gg	4ee
.	.	12C	.	.
.	.	12EJ	.	.
.	.	12GL	4gg	4ee
.	.	12c	.	.
.	.	12eJ	.	.
=106	=106	=106	=106	=106
2D	2V7	12gL	2ff	(4ee
.	.	12f#	.	.
.	.	12gJ	.	.
.	.	12GL	.	4dd)
.	.	12A	.	.
.	.	12BJ	.	.
=107	=107	=107	=107	=107
2T	2I	12cL	[4ee	(4dd
.	.	12B	.	.
.	.	12cJ	.	.
.	.	12CL	8.eeL]	4cc)
.	.	12E	.	.
.	.	12FJ	.	.
.	.	.	16aaJk	.
=108	=108	=108	=108	=108
4D	4Cc	12GL	(4ee	(4cc
.	.	12F#	.	.
.	.	12GJ	.	.
4D	4V7	4GG	12ddL)	4b)
.	.	.	12ee	.
.	.	.	12ffJ	.
=109	=109	=109	=109	=109
2D	2Ic	12GGL	4gg	4ee
.	.	12C	.	.
.	.	12EJ	.	.
.	.	12GL	4gg	4ee
.	.	12c	.	.
.	.	12eJ	.	.
=110	=110	=110	=110	=110
2D	2V7	12gL	2ff	(4ee
.	.	12f#	.	.
.	.	12gJ	.	.
.	.	12GL	.	4dd)
.	.	12A	.	.
.	.	12BJ	.	.
=111	=111	=111	=111	=111
2T	2I	12cL	[4ee	(4dd
.	.	12B	.	.
.	.	12cJ	.	.
.	.	12CL	8.eeL]	4cc)
.	.	12E	.	.
.	.	12FJ	.	.
.	.	.	16aaJk	.
=112	=112	=112	=112	=112
4D	4Cc	12GL	(4ee	(4cc
.	.	12F#	.	.
.	.	12GJ	.	.
4D	4V	4GG	12ddL)	4b)
.	.	.	12ff	.
.	.	.	12ddJ	.
*	*	*	*v	*v
*-	*-	*-	*-
